X: 2146
T: Aughacashel, The
R: reel
M: 4/4
K: Gmajor
DEGA BG~G2|AGBG AGEG|DEGA Bded|gedB ABGE|
DEGA BG~G2|AGBG AGEG|Bded Bdge|1 dBAB G3E:|2 dBAB G2Bd||
gedB G2Bd|eBdB ~G3B|~A3B A~E3|cABG A2Bd|
~g3a bgag|egdB ABGE|DEGA Bdge|1 dBAB G2Bd:|2 dBAB G3E||

